src/catppuccin-mocha-lavender-cursors/size_bdiag_24.svg

<?xml version="1.0" encoding="UTF-8" standalone="no"?>
<svg
   id="svg5327"
   width="24"
   height="24"
   version="1.1"
   sodipodi:docname="size_bdiag_24.svg"
   inkscape:version="1.1.2 (0a00cf5339, 2022-02-04)"
   xmlns:inkscape="http://www.inkscape.org/namespaces/inkscape"
   xmlns:sodipodi="http://sodipodi.sourceforge.net/DTD/sodipodi-0.dtd"
   xmlns="http://www.w3.org/2000/svg"
   xmlns:svg="http://www.w3.org/2000/svg">
  <path
     style="color:#000000;opacity:0.1;fill:#000000;fill-opacity:1;stroke-linecap:round;stroke-linejoin:round;-inkscape-stroke:none;filter:url(#filter2213)"
     d="m 18.298577,4.5214029 a 1.0001,1.0001 0 0 1 1.179688,1.1816406 l -1.248047,6.0312495 a 1.0001,1.0001 0 0 1 -1.976563,-0.144531 c -0.02115,-0.36464 -0.160485,-0.866653 -0.380859,-1.371094 l -5.654297,5.654297 c 0.50444,0.220373 1.006452,0.359706 1.371094,0.380859 a 1.0001,1.0001 0 0 1 0.144531,1.976563 l -6.0312495,1.248047 a 1.0001,1.0001 0 0 1 -1.181641,-1.179688 l 1.242188,-6.037109 a 1.0001,1.0001 0 0 1 1.978515,0.144531 c 0.02007,0.361543 0.1576,0.864389 0.378907,1.369141 L 13.77514,8.1210122 C 13.270388,7.899706 12.767543,7.7621789 12.405999,7.742106 A 1.0001,1.0001 0 0 1 12.261468,5.7635904 Z M 17.21264,6.7850747 15.796624,7.0760904 c 0.220554,0.1656953 0.4721,0.2516532 0.673828,0.453125 0.201392,0.2011492 0.284089,0.4520207 0.449219,0.671875 z M 7.0759215,15.796793 6.7849055,17.212809 8.2009215,16.91984 c -0.219855,-0.165131 -0.470726,-0.247824 -0.671875,-0.449219 -0.201472,-0.201728 -0.28743,-0.453275 -0.453125,-0.673828 z"
     id="path2175" />
  <path
     style="color:#000000;fill:#1E1E2E;fill-opacity:1;stroke-linecap:round;stroke-linejoin:round;-inkscape-stroke:none"
     d="m 17.798496,4.0214844 a -1.0001,1.0001 0 0 1 1.179688,1.1816406 l -1.248047,6.03125 a -1.0001,1.0001 0 0 1 -1.976563,-0.144531 c -0.02115,-0.36464 -0.160485,-0.866653 -0.380859,-1.371094 l -5.654297,5.654297 c 0.50444,0.220373 1.006452,0.359706 1.371094,0.380859 a -1.0001,1.0001 0 0 1 0.144531,1.976563 l -6.03125,1.248047 A -1.0001,1.0001 0 0 1 4.021152,17.798828 L 5.26334,11.761719 a -1.0001,1.0001 0 0 1 1.978515,0.144531 c 0.02007,0.361543 0.1576,0.864389 0.378907,1.369141 L 13.275059,7.6210937 C 12.770307,7.3997875 12.267462,7.2622604 11.905918,7.2421875 A -1.0001,1.0001 0 0 1 11.761387,5.2636719 Z m -1.085937,2.2636718 -1.416016,0.2910157 c 0.220554,0.1656953 0.4721,0.2516532 0.673828,0.453125 0.201392,0.2011492 0.284089,0.4520207 0.449219,0.671875 z M 6.57584,15.296875 6.284824,16.712891 7.70084,16.419922 C 7.480985,16.254791 7.230114,16.172098 7.028965,15.970703 6.827493,15.768975 6.741535,15.517428 6.57584,15.296875 Z"
     id="path1923" />
  <path
     id="path994"
     style="fill:#B4BEFE;fill-opacity:1;stroke:none;stroke-width:0;stroke-linecap:round;stroke-linejoin:round;stroke-miterlimit:4;stroke-dasharray:none;stroke-dashoffset:0;stroke-opacity:1;paint-order:normal"
     d="m 11.962045,6.2428049 6.037623,-1.2428045 -1.24815,6.0322776 C 16.694654,10.052049 16.201219,8.674103 15.262826,7.7368425 14.324401,6.7996112 12.945116,6.2973851 11.962045,6.2428049 Z M 6.242472,11.962378 c 0.05458,0.98307 0.556807,2.362354 1.494038,3.30078 0.937255,0.938399 2.315207,1.431828 3.295436,1.488693 L 4.999668,18 Z m 7.991366,-3.8861027 0.68421,0.6842104 -6.157895,6.1578953 -0.68421,-0.684211 z"
     sodipodi:nodetypes="ccccccccccccccc" />
  <sodipodi:namedview
     id="namedview13"
     pagecolor="#ffffff"
     bordercolor="#666666"
     borderopacity="1.0"
     inkscape:pageshadow="2"
     inkscape:pageopacity="0.0"
     inkscape:pagecheckerboard="0"
     showgrid="true"
     inkscape:zoom="17.31"
     inkscape:cx="13.258232"
     inkscape:cy="16.002311"
     inkscape:window-width="1896"
     inkscape:window-height="1020"
     inkscape:window-x="9"
     inkscape:window-y="45"
     inkscape:window-maximized="1"
     inkscape:current-layer="svg5327">
    <inkscape:grid
       type="xygrid"
       id="grid1372" />
  </sodipodi:namedview>
  <defs
     id="defs5329">
    <filter
       id="filter937"
       style="color-interpolation-filters:sRGB"
       width="1.152"
       height="1.099"
       x="-0.079999998"
       y="-0.050000001">
      <feGaussianBlur
         id="feGaussianBlur939"
         stdDeviation=".413" />
    </filter>
    <filter
       id="filter939"
       style="color-interpolation-filters:sRGB"
       width="1.12"
       height="1.12"
       x="-0.059999999"
       y="-0.059999999">
      <feGaussianBlur
         id="feGaussianBlur941"
         stdDeviation=".675" />
    </filter>
    <filter
       id="filter820"
       style="color-interpolation-filters:sRGB"
       width="1.144"
       height="1.144"
       x="-0.072000001"
       y="-0.072000002">
      <feGaussianBlur
         id="feGaussianBlur822"
         stdDeviation=".81" />
    </filter>
    <filter
       inkscape:collect="always"
       style="color-interpolation-filters:sRGB"
       id="filter2213"
       x="-0.023456017"
       y="-0.023456018"
       width="1.046912"
       height="1.046912">
      <feGaussianBlur
         inkscape:collect="always"
         stdDeviation="0.14657891"
         id="feGaussianBlur2215" />
    </filter>
  </defs>
</svg>

<svg xmlns="http://www.w3.org/2000/svg" width="24" height="24">
    <path d="M18.299 4.521a1 1 0 0 1 1.18 1.182l-1.249 6.031a1 1 0 0 1-1.976-.144c-.021-.365-.16-.867-.381-1.371l-5.655 5.654c.505.22 1.007.36 1.372.38a1 1 0 0 1 .144 1.977l-6.031 1.248a1 1 0 0 1-1.182-1.18l1.242-6.036a1 1 0 0 1 1.979.144c.02.362.158.865.379 1.37l5.654-5.655c-.505-.221-1.007-.359-1.369-.379a1 1 0 0 1-.145-1.978Zm-1.086 2.264-1.416.291c.22.166.472.252.673.453s.285.452.45.672zM7.076 15.797l-.291 1.416L8.2 16.92c-.22-.165-.47-.248-.672-.45-.201-.201-.287-.453-.453-.673" style="color:#000;opacity:.1;fill:#000;fill-opacity:1;stroke-linecap:round;stroke-linejoin:round;-inkscape-stroke:none;filter:url(#a)"/>
    <path d="M11.962 6.243 18 5l-1.248 6.032c-.057-.98-.55-2.358-1.49-3.295-.938-.937-2.317-1.44-3.3-1.494m-5.72 5.72c.055.982.557 2.362 1.495 3.3.937.939 2.315 1.432 3.295 1.489L5 18Zm7.992-3.887.684.684-6.158 6.158-.684-.684z" style="fill:#b4befe;fill-opacity:1;stroke:none;stroke-width:0;stroke-linecap:round;stroke-linejoin:round;stroke-miterlimit:4;stroke-dasharray:none;stroke-dashoffset:0;stroke-opacity:1;paint-order:normal"/>
    <defs>
        <filter id="a" width="1.047" height="1.047" x="-.023" y="-.023" style="color-interpolation-filters:sRGB">
            <feGaussianBlur stdDeviation=".147"/>
        </filter>
    </defs>
</svg>
